X:96
T:B096-  Cupid's courtesy
Q:1/4=120
L:1/4
M:3/4
K:Am
eAB|cde|de(d/2c/2)|B2A|\
eAB|cde|de(d/2c/2)|B2A|
ggg|g(f/2e/2) (d/2c/2)|gga|^gee|\
eAB|cde|de(d/2c/2)|B2A|]

